static/img/kroki/957f4d0265fec8ef651305e461d1a15f.svg

<?xml version="1.0" encoding="us-ascii" standalone="no"?><svg xmlns="http://www.w3.org/2000/svg" xmlns:xlink="http://www.w3.org/1999/xlink" contentStyleType="text/css" height="374px" preserveAspectRatio="none" style="width:451px;height:374px;" version="1.1" viewBox="0 0 451 374" width="451px" zoomAndPan="magnify"><defs/><g><!--class azure_web_app--><g id="elem_azure_web_app"><rect codeLine="23" fill="#3D176E" height="39.7891" id="azure_web_app" rx="2.5" ry="2.5" style="stroke:#000D19;stroke-width:0.5;" width="171" x="138.5" y="328.58"/><ellipse cx="153.5" cy="348.4745" fill="#ADD1B2" rx="11" ry="11" style="stroke:#181818;stroke-width:1.0;"/><path d="M156.4688,354.1152 Q155.8906,354.412 155.25,354.5527 Q154.6094,354.7089 153.9063,354.7089 Q151.4063,354.7089 150.0781,353.0683 Q148.7656,351.412 148.7656,348.287 Q148.7656,345.162 150.0781,343.5058 Q151.4063,341.8495 153.9063,341.8495 Q154.6094,341.8495 155.25,342.0058 Q155.9063,342.162 156.4688,342.4589 L156.4688,345.1777 Q155.8438,344.5995 155.25,344.3339 Q154.6563,344.0527 154.0313,344.0527 Q152.6875,344.0527 152,345.1308 Q151.3125,346.1933 151.3125,348.287 Q151.3125,350.3808 152,351.4589 Q152.6875,352.5214 154.0313,352.5214 Q154.6563,352.5214 155.25,352.2558 Q155.8438,351.9745 156.4688,351.3964 L156.4688,354.1152 Z " fill="#000000"/><text fill="#D9B8FF" font-family="Helvetica" font-size="17" lengthAdjust="spacing" textLength="129" x="172.5" y="354.3598">azure_web_app</text></g><!--class microsoft_resource--><g id="elem_microsoft_resource"><rect codeLine="26" fill="#3D176E" height="39.7891" id="microsoft_resource" rx="2.5" ry="2.5" style="stroke:#000D19;stroke-width:0.5;" width="200" x="7" y="167.79"/><ellipse cx="22" cy="187.6845" fill="#ADD1B2" rx="11" ry="11" style="stroke:#181818;stroke-width:1.0;"/><path d="M24.9688,193.3252 Q24.3906,193.622 23.75,193.7627 Q23.1094,193.9189 22.4063,193.9189 Q19.9063,193.9189 18.5781,192.2783 Q17.2656,190.622 17.2656,187.497 Q17.2656,184.372 18.5781,182.7158 Q19.9063,181.0595 22.4063,181.0595 Q23.1094,181.0595 23.75,181.2158 Q24.4063,181.372 24.9688,181.6689 L24.9688,184.3877 Q24.3438,183.8095 23.75,183.5439 Q23.1563,183.2627 22.5313,183.2627 Q21.1875,183.2627 20.5,184.3408 Q19.8125,185.4033 19.8125,187.497 Q19.8125,189.5908 20.5,190.6689 Q21.1875,191.7314 22.5313,191.7314 Q23.1563,191.7314 23.75,191.4658 Q24.3438,191.1845 24.9688,190.6064 L24.9688,193.3252 Z " fill="#000000"/><text fill="#D9B8FF" font-family="Helvetica" font-size="17" lengthAdjust="spacing" textLength="158" x="41" y="193.5698">microsoft_resource</text></g><!--class resource--><g id="elem_resource"><rect codeLine="29" fill="#3D176E" height="39.7891" id="resource" rx="2.5" ry="2.5" style="stroke:#000D19;stroke-width:0.5;" width="113" x="167.5" y="7"/><ellipse cx="182.5" cy="26.8945" fill="#ADD1B2" rx="11" ry="11" style="stroke:#181818;stroke-width:1.0;"/><path d="M185.4688,32.5352 Q184.8906,32.832 184.25,32.9727 Q183.6094,33.1289 182.9063,33.1289 Q180.4063,33.1289 179.0781,31.4883 Q177.7656,29.832 177.7656,26.707 Q177.7656,23.582 179.0781,21.9258 Q180.4063,20.2695 182.9063,20.2695 Q183.6094,20.2695 184.25,20.4258 Q184.9063,20.582 185.4688,20.8789 L185.4688,23.5977 Q184.8438,23.0195 184.25,22.7539 Q183.6563,22.4727 183.0313,22.4727 Q181.6875,22.4727 181,23.5508 Q180.3125,24.6133 180.3125,26.707 Q180.3125,28.8008 181,29.8789 Q181.6875,30.9414 183.0313,30.9414 Q183.6563,30.9414 184.25,30.6758 Q184.8438,30.3945 185.4688,29.8164 L185.4688,32.5352 Z " fill="#000000"/><text fill="#D9B8FF" font-family="Helvetica" font-size="17" lengthAdjust="spacing" textLength="71" x="201.5" y="32.7798">resource</text></g><!--class serverless_function--><g id="elem_serverless_function"><rect codeLine="32" fill="#3D176E" height="39.7891" id="serverless_function" rx="2.5" ry="2.5" style="stroke:#000D19;stroke-width:0.5;" width="203" x="241.5" y="167.79"/><ellipse cx="256.5" cy="187.6845" fill="#ADD1B2" rx="11" ry="11" style="stroke:#181818;stroke-width:1.0;"/><path d="M259.4688,193.3252 Q258.8906,193.622 258.25,193.7627 Q257.6094,193.9189 256.9063,193.9189 Q254.4063,193.9189 253.0781,192.2783 Q251.7656,190.622 251.7656,187.497 Q251.7656,184.372 253.0781,182.7158 Q254.4063,181.0595 256.9063,181.0595 Q257.6094,181.0595 258.25,181.2158 Q258.9063,181.372 259.4688,181.6689 L259.4688,184.3877 Q258.8438,183.8095 258.25,183.5439 Q257.6563,183.2627 257.0313,183.2627 Q255.6875,183.2627 255,184.3408 Q254.3125,185.4033 254.3125,187.497 Q254.3125,189.5908 255,190.6689 Q255.6875,191.7314 257.0313,191.7314 Q257.6563,191.7314 258.25,191.4658 Q258.8438,191.1845 259.4688,190.6064 L259.4688,193.3252 Z " fill="#000000"/><text fill="#D9B8FF" font-family="Helvetica" font-size="17" lengthAdjust="spacing" textLength="161" x="275.5" y="193.5698">serverless_function</text></g><!--reverse link microsoft_resource to azure_web_app--><g id="link_microsoft_resource_azure_web_app"><path codeLine="35" d="M131.7881,222.3306 C154.2781,252.8506 187.32,297.69 209.84,328.25 " fill="none" id="microsoft_resource-backto-azure_web_app" style="stroke:#FFAF37;stroke-width:2.0;"/><polygon fill="none" points="121.11,207.84,126.9579,225.89,136.6183,218.7713,121.11,207.84" style="stroke:#FFAF37;stroke-width:2.0;"/></g><!--reverse link serverless_function to azure_web_app--><g id="link_serverless_function_azure_web_app"><path codeLine="36" d="M317.853,222.2423 C294.973,252.7623 261.31,297.69 238.41,328.25 " fill="none" id="serverless_function-backto-azure_web_app" style="stroke:#FFAF37;stroke-width:2.0;"/><polygon fill="none" points="328.65,207.84,313.0523,218.6433,322.6538,225.8413,328.65,207.84" style="stroke:#FFAF37;stroke-width:2.0;"/></g><!--reverse link resource to microsoft_resource--><g id="link_resource_microsoft_resource"><path codeLine="37" d="M199.2119,61.5406 C176.7219,92.0606 143.68,136.9 121.16,167.46 " fill="none" id="resource-backto-microsoft_resource" style="stroke:#FFAF37;stroke-width:2.0;"/><polygon fill="none" points="209.89,47.05,194.3817,57.9813,204.0421,65.1,209.89,47.05" style="stroke:#FFAF37;stroke-width:2.0;"/></g><!--reverse link resource to serverless_function--><g id="link_resource_serverless_function"><path codeLine="38" d="M249.147,61.4523 C272.027,91.9723 305.69,136.9 328.59,167.46 " fill="none" id="resource-backto-serverless_function" style="stroke:#FFAF37;stroke-width:2.0;"/><polygon fill="none" points="238.35,47.05,244.3462,65.0513,253.9477,57.8533,238.35,47.05" style="stroke:#FFAF37;stroke-width:2.0;"/></g><!--SRC=[XPB1Ri8m44Jl-GfBd2D1KGkHUg58LNj1LUazsjXhi4ZiQBq1GTj_BnHQ6IV0TUTvPdRbfL4eiAfvAogi2YIV-9MnDH1KOaBaDbDNEX8zhK4FHx7ux2pV16PGeNZ1Seri9CJ4nzB8bKNlnLqWFO5SBSWrLXtjcS3wlOIM0sfQWlSJPZ95mnYKKLanrZecOzFUK0r63zZ272ca4zBlzzKWYv6RKLVt_YVcPeTY41vjvXXRDLiHlzJLbWSYADbQz4-_sF4Db39s8Uw3sVkn4rcai_by2Sfj3hI6qeSndf7GyRR6QMihpCPAZphXrqjm8W-d4x1h2FCD5ZdKjVXCak-JK1b9pZlDEQ5t3KaCrQwPHreZbVl_b-l6IZRE7kKEgyUlD4tFmvEkzrrSPD9sZuaEu-G7]--></g></svg>

<svg xmlns="http://www.w3.org/2000/svg" width="451" height="374" viewBox="0 0 451 374"><rect width="171" height="39.789" x="138.5" y="328.58" fill="#3D176E" rx="2.5" ry="2.5" style="stroke:#000d19;stroke-width:.5"/><circle cx="153.5" cy="348.474" r="11" fill="#ADD1B2" style="stroke:#181818;stroke-width:1"/><path d="M156.469 354.115q-.578.297-1.219.438-.64.156-1.344.156-2.5 0-3.828-1.64-1.312-1.657-1.312-4.782t1.312-4.781q1.328-1.656 3.828-1.656.703 0 1.344.156.656.156 1.219.453v2.719q-.625-.579-1.219-.844-.594-.281-1.219-.281-1.344 0-2.031 1.078-.687 1.062-.687 3.156t.687 3.172q.688 1.062 2.031 1.062.625 0 1.219-.265.594-.281 1.219-.86z"/><text x="172.5" y="354.36" fill="#D9B8FF" font-family="Helvetica" font-size="17" textLength="129">azure_web_app</text><rect width="200" height="39.789" x="7" y="167.79" fill="#3D176E" rx="2.5" ry="2.5" style="stroke:#000d19;stroke-width:.5"/><circle cx="22" cy="187.685" r="11" fill="#ADD1B2" style="stroke:#181818;stroke-width:1"/><path d="M24.969 193.325q-.578.297-1.219.438-.64.156-1.344.156-2.5 0-3.828-1.64-1.312-1.657-1.312-4.782t1.312-4.781q1.328-1.656 3.828-1.656.703 0 1.344.156.656.156 1.219.453v2.719q-.625-.578-1.219-.844-.594-.281-1.219-.281-1.343 0-2.031 1.078-.687 1.062-.687 3.156t.687 3.172q.688 1.062 2.031 1.062.625 0 1.219-.265.594-.281 1.219-.86z"/><text x="41" y="193.57" fill="#D9B8FF" font-family="Helvetica" font-size="17" textLength="158">microsoft_resource</text><rect width="113" height="39.789" x="167.5" y="7" fill="#3D176E" rx="2.5" ry="2.5" style="stroke:#000d19;stroke-width:.5"/><circle cx="182.5" cy="26.895" r="11" fill="#ADD1B2" style="stroke:#181818;stroke-width:1"/><path d="M185.469 32.535q-.578.297-1.219.438-.64.156-1.344.156-2.5 0-3.828-1.64-1.312-1.657-1.312-4.782t1.312-4.781q1.328-1.656 3.828-1.656.703 0 1.344.156.656.156 1.219.453v2.719q-.625-.578-1.219-.844-.594-.281-1.219-.281-1.344 0-2.031 1.078-.687 1.062-.687 3.156t.687 3.172q.688 1.062 2.031 1.062.625 0 1.219-.265.594-.281 1.219-.86z"/><text x="201.5" y="32.78" fill="#D9B8FF" font-family="Helvetica" font-size="17" textLength="71">resource</text><rect width="203" height="39.789" x="241.5" y="167.79" fill="#3D176E" rx="2.5" ry="2.5" style="stroke:#000d19;stroke-width:.5"/><circle cx="256.5" cy="187.685" r="11" fill="#ADD1B2" style="stroke:#181818;stroke-width:1"/><path d="M259.469 193.325q-.578.297-1.219.438-.64.156-1.344.156-2.5 0-3.828-1.64-1.312-1.657-1.312-4.782t1.312-4.781q1.328-1.656 3.828-1.656.703 0 1.344.156.656.156 1.219.453v2.719q-.625-.578-1.219-.844-.594-.281-1.219-.281-1.344 0-2.031 1.078-.687 1.062-.687 3.156t.687 3.172q.688 1.062 2.031 1.062.625 0 1.219-.265.594-.281 1.219-.86z"/><text x="275.5" y="193.57" fill="#D9B8FF" font-family="Helvetica" font-size="17" textLength="161">serverless_function</text><path fill="none" d="m131.788 222.33 78.052 105.92m-88.73-120.41 5.848 18.05 9.66-7.119z" style="stroke:#ffaf37;stroke-width:2"/><g fill="none"><path d="M317.853 222.242c-22.88 30.52-56.543 75.448-79.443 106.008" style="stroke:#ffaf37;stroke-width:2"/><path d="m328.65 207.84-15.598 10.803 9.602 7.198z" style="stroke:#ffaf37;stroke-width:2"/></g><path fill="none" d="M199.212 61.54 121.16 167.46m88.73-120.41-15.508 10.931 9.66 7.119z" style="stroke:#ffaf37;stroke-width:2"/><g fill="none"><path d="M249.147 61.452c22.88 30.52 56.543 75.448 79.443 106.008" style="stroke:#ffaf37;stroke-width:2"/><path d="m238.35 47.05 5.996 18.001 9.602-7.198z" style="stroke:#ffaf37;stroke-width:2"/></g></svg>
